img/form/input-before.svg

<svg width="11" height="10" fill="none" xmlns="http://www.w3.org/2000/svg"><path d="m9.79 3.14.39 1.456-3.822.884 2.418 3.094-1.222.884-2.262-3.276L3.03 9.458l-1.222-.884L4.2 5.48.404 4.596l.39-1.456 3.848 1.144-.104-4.03h1.534l-.13 4.03L9.79 3.14Z" fill="#F08E02"/></svg>

<svg width="11" height="10" viewBox="0 0 11 10" fill="none" xmlns="http://www.w3.org/2000/svg">
<path d="M9.79 3.14L10.18 4.596L6.358 5.48L8.776 8.574L7.554 9.458L5.292 6.182L3.03 9.458L1.808 8.574L4.2 5.48L0.404 4.596L0.794 3.14L4.642 4.284L4.538 0.254H6.072L5.942 4.284L9.79 3.14Z" fill="#F08E02"/>
</svg>
